assets/icons/24px/stroke/databse-24px.svg

<svg width="24" height="24" viewBox="0 0 24 24" fill="none" xmlns="http://www.w3.org/2000/svg">
<path fill-rule="evenodd" clip-rule="evenodd" d="M7.93417 1.99997C7.95604 1.99997 7.97799 1.99997 8 1.99997L16.0658 1.99997C16.9523 1.99992 17.7161 1.99988 18.3278 2.08211C18.9833 2.17025 19.6117 2.36899 20.1213 2.87865C20.631 3.38832 20.8297 4.01667 20.9179 4.67218C21.0001 5.28384 21.0001 6.04764 21 6.93411V17.0658C21.0001 17.9523 21.0001 18.7161 20.9179 19.3278C20.8297 19.9833 20.631 20.6116 20.1213 21.1213C19.6117 21.631 18.9833 21.8297 18.3278 21.9178C17.7161 22.0001 16.9523 22 16.0659 22H7.93414C7.04767 22 6.28387 22.0001 5.67221 21.9178C5.0167 21.8297 4.38835 21.631 3.87868 21.1213C3.36902 20.6116 3.17028 19.9833 3.08215 19.3278C2.99991 18.7161 2.99995 17.9523 3 17.0658L3 6.99997C3 6.97796 3 6.95601 3 6.93414C2.99995 6.04766 2.99991 5.28384 3.08215 4.67218C3.17028 4.01667 3.36902 3.38832 3.87868 2.87865C4.38835 2.36899 5.0167 2.17025 5.67221 2.08211C6.28387 1.99988 7.04769 1.99992 7.93417 1.99997ZM5.93871 4.06428C5.50497 4.1226 5.36902 4.21674 5.2929 4.29287C5.21677 4.36899 5.12263 4.50494 5.06431 4.93868C5.00213 5.40118 5 6.0289 5 6.99997V17C5 17.9711 5.00213 18.5988 5.06431 19.0613C5.12263 19.495 5.21677 19.631 5.2929 19.7071C5.36902 19.7832 5.50497 19.8774 5.93871 19.9357C6.40122 19.9979 7.02893 20 8 20H16C16.9711 20 17.5988 19.9979 18.0613 19.9357C18.495 19.8774 18.631 19.7832 18.7071 19.7071C18.7832 19.631 18.8774 19.495 18.9357 19.0613C18.9979 18.5988 19 17.9711 19 17V6.99997C19 6.0289 18.9979 5.40118 18.9357 4.93868C18.8774 4.50494 18.7832 4.36899 18.7071 4.29287C18.631 4.21674 18.495 4.1226 18.0613 4.06428C17.5988 4.0021 16.9711 3.99997 16 3.99997H8C7.02893 3.99997 6.40122 4.0021 5.93871 4.06428Z" fill="white"/>
<path fill-rule="evenodd" clip-rule="evenodd" d="M3 8.99997C3 8.44768 3.44772 7.99997 4 7.99997L20 7.99997C20.5523 7.99997 21 8.44768 21 8.99997C21 9.55225 20.5523 9.99997 20 9.99997L4 9.99997C3.44772 9.99997 3 9.55225 3 8.99997Z" fill="white"/>
<path fill-rule="evenodd" clip-rule="evenodd" d="M3 15C3 14.4477 3.44772 14 4 14L20 14C20.5523 14 21 14.4477 21 15C21 15.5523 20.5523 16 20 16L4 16C3.44772 16 3 15.5523 3 15Z" fill="white"/>
<path d="M9 12C9 12.5523 8.55228 13 8 13C7.44772 13 7 12.5523 7 12C7 11.4477 7.44772 11 8 11C8.55228 11 9 11.4477 9 12Z" fill="white"/>
<path d="M9 5.99997C9 6.55225 8.55228 6.99997 8 6.99997C7.44772 6.99997 7 6.55225 7 5.99997C7 5.44768 7.44772 4.99997 8 4.99997C8.55228 4.99997 9 5.44768 9 5.99997Z" fill="white"/>
<path d="M9 18C9 18.5523 8.55228 19 8 19C7.44772 19 7 18.5523 7 18C7 17.4477 7.44772 17 8 17C8.55228 17 9 17.4477 9 18Z" fill="white"/>
</svg>

<svg width="24" height="24" fill="none" xmlns="http://www.w3.org/2000/svg"><path fill-rule="evenodd" clip-rule="evenodd" d="M7.934 2H16.066c.886 0 1.65 0 2.262.082.655.088 1.284.287 1.793.797.51.51.709 1.138.797 1.793C21 5.284 21 6.048 21 6.934v10.132c0 .886 0 1.65-.082 2.262-.088.655-.287 1.284-.797 1.793-.51.51-1.138.709-1.793.797-.612.082-1.376.082-2.262.082H7.934c-.886 0-1.65 0-2.262-.082-.655-.088-1.284-.287-1.793-.797-.51-.51-.709-1.138-.797-1.793C3 18.716 3 17.952 3 17.066V7v-.066c0-.886 0-1.65.082-2.262.088-.655.287-1.284.797-1.793.51-.51 1.138-.709 1.793-.797C6.284 2 7.048 2 7.934 2zM5.94 4.064c-.434.059-.57.153-.646.229-.076.076-.17.212-.229.646C5.002 5.4 5 6.029 5 7v10c0 .971.002 1.599.064 2.061.059.434.153.57.229.646.076.076.212.17.646.229C6.4 19.998 7.029 20 8 20h8c.971 0 1.599-.002 2.061-.064.434-.059.57-.153.646-.229.076-.076.17-.212.229-.646.062-.462.064-1.09.064-2.061V7c0-.971-.002-1.599-.064-2.061-.059-.434-.153-.57-.229-.646-.076-.076-.212-.17-.646-.229C17.6 4.002 16.971 4 16 4H8c-.971 0-1.599.002-2.061.064z" fill="#fff"/><path fill-rule="evenodd" clip-rule="evenodd" d="M3 9a1 1 0 0 1 1-1h16a1 1 0 1 1 0 2H4a1 1 0 0 1-1-1zm0 6a1 1 0 0 1 1-1h16a1 1 0 1 1 0 2H4a1 1 0 0 1-1-1z" fill="#fff"/><path d="M9 12a1 1 0 1 1-2 0 1 1 0 0 1 2 0zm0-6a1 1 0 1 1-2 0 1 1 0 0 1 2 0zm0 12a1 1 0 1 1-2 0 1 1 0 0 1 2 0z" fill="#fff"/></svg>
